packages/brickdoc-design-icons/assets/edit/text-style.svg

<svg width="1em" height="1em" viewBox="0 0 24 24" fill="none" xmlns="http://www.w3.org/2000/svg">
<path d="M11.3279 14.8242H4.6612L3.16393 19H1L7.0765 3H8.91257L15 19H12.847L11.3279 14.8242ZM5.29508 13.0879H10.7049L7.99454 5.6044L5.29508 13.0879Z" fill="currentColor"/>
<path fill-rule="evenodd" clip-rule="evenodd" d="M6.97301 2.85H9.01599L15.2176 19.15H12.7419L11.2228 14.9742H4.76677L3.2695 19.15H0.782578L6.97301 2.85ZM7.17999 3.15L1.21742 18.85H3.05837L4.55563 14.6742H11.4329L12.952 18.85H14.7824L8.80915 3.15H7.17999ZM7.99425 5.16312L10.9188 13.2379H5.08151L7.99425 5.16312ZM7.99482 6.04567L5.50865 12.9379H10.4911L7.99482 6.04567Z" fill="currentColor"/>
<path d="M21.262 18.8217C21.1665 18.6316 21.0888 18.2929 21.0291 17.8057C20.2587 18.6019 19.3389 19 18.2699 19C17.3143 19 16.5289 18.7326 15.9138 18.1979C15.3046 17.6572 15 16.9739 15 16.1479C15 15.1438 15.3822 14.3654 16.1467 13.8128C16.9171 13.2543 17.9981 12.975 19.3897 12.975H21.0022V12.2175C21.0022 11.6411 20.829 11.1836 20.4826 10.8449C20.1362 10.5003 19.6256 10.328 18.9507 10.328C18.3595 10.328 17.8638 10.4765 17.4636 10.7736C17.0635 11.0707 16.8634 11.4302 16.8634 11.852H15.1971C15.1971 11.3708 15.3673 10.9073 15.7077 10.4617C16.0541 10.0101 16.52 9.65359 17.1053 9.39216C17.6965 9.13072 18.3445 9 19.0493 9C20.1661 9 21.0411 9.27926 21.6741 9.83779C22.3072 10.3904 22.6357 11.1539 22.6596 12.1283V16.5668C22.6596 17.4522 22.773 18.1563 23 18.6791V18.8217H21.262ZM18.5118 17.5651C19.0314 17.5651 19.5241 17.4314 19.9899 17.164C20.4558 16.8966 20.7932 16.549 21.0022 16.1212V14.1426H19.7032C17.6726 14.1426 16.6573 14.7338 16.6573 15.9162C16.6573 16.4332 16.8305 16.8372 17.1769 17.1283C17.5233 17.4195 17.9683 17.5651 18.5118 17.5651Z" fill="currentColor"/>
<path fill-rule="evenodd" clip-rule="evenodd" d="M19.0493 9.15C18.3636 9.15 17.7366 9.27705 17.1662 9.52923C16.6009 9.78177 16.1562 10.1236 15.8268 10.5529C15.5397 10.9288 15.3845 11.3113 15.3531 11.702H16.7212C16.7647 11.2894 16.9895 10.9388 17.3742 10.6532C17.8048 10.3335 18.3334 10.178 18.9507 10.178C19.6496 10.178 20.2042 10.3566 20.588 10.7381C20.9683 11.1103 21.1522 11.6093 21.1522 12.2175V13.125H19.3897C18.0158 13.125 16.9702 13.4011 16.2347 13.9343C15.5122 14.4566 15.15 15.1883 15.15 16.148C15.15 16.9314 15.4366 17.5735 16.0128 18.0852C16.596 18.5919 17.3442 18.85 18.2699 18.85C19.2967 18.85 20.178 18.4696 20.9213 17.7014L21.1398 17.4756L21.178 17.7875C21.2289 18.2024 21.2913 18.493 21.36 18.6717H22.8343C22.615 18.1309 22.5096 17.4265 22.5096 16.5668V12.1302C22.4862 11.1913 22.1714 10.4709 21.5755 9.9508C20.9777 9.42335 20.1416 9.15 19.0493 9.15ZM17.0446 9.25497C17.6566 8.98435 18.3255 8.85 19.0493 8.85C20.1905 8.85 21.1048 9.13562 21.7731 9.72506C22.4428 10.3098 22.7848 11.1157 22.8095 12.1247L22.8096 12.1283L22.8096 16.5668C22.8096 17.4418 22.9221 18.1229 23.1376 18.6194L23.15 18.648V18.9717H21.1696L21.128 18.8891C21.0429 18.7197 20.9754 18.4597 20.9214 18.1193C20.1686 18.8046 19.2828 19.15 18.2699 19.15C17.2847 19.15 16.4624 18.8735 15.8154 18.3111L15.8142 18.31C15.1724 17.7404 14.85 17.0161 14.85 16.148C14.85 15.0993 15.2524 14.2742 16.0587 13.6914C16.8641 13.1075 17.9805 12.825 19.3897 12.825H20.8522V12.2175C20.8522 11.6732 20.6899 11.2573 20.3778 10.9522L20.3769 10.9513C20.0679 10.6439 19.6014 10.478 18.9507 10.478C18.3855 10.478 17.9228 10.6196 17.553 10.8941C17.1832 11.1687 17.0134 11.4866 17.0134 11.852V12.002H15.0471V11.852C15.0471 11.3326 15.2316 10.8379 15.5885 10.3706C15.9519 9.89686 16.4395 9.52528 17.0446 9.25497ZM17.3433 14.4564C17.8851 14.1409 18.6783 13.9926 19.7033 13.9926H21.1522V16.1559L21.137 16.1871C20.9132 16.6452 20.553 17.0138 20.0646 17.2941C19.5768 17.574 19.0585 17.7151 18.5118 17.7151C17.9404 17.7151 17.459 17.5614 17.0804 17.2432C16.6951 16.9193 16.5073 16.4704 16.5073 15.9162C16.5073 15.272 16.7892 14.7791 17.3433 14.4564ZM17.4943 14.7156C17.0332 14.9842 16.8073 15.378 16.8073 15.9162C16.8073 16.3959 16.966 16.7551 17.2735 17.0135C17.5876 17.2776 17.9962 17.4151 18.5118 17.4151C19.0043 17.4151 19.4713 17.2887 19.9153 17.0339C20.3471 16.786 20.657 16.4696 20.8522 16.0859V14.2926H19.7033C18.6976 14.2926 17.9679 14.4399 17.4943 14.7156Z" fill="currentColor"/>
</svg>

<svg  viewBox="0 0 24 24" width="1em" height="1em" fill="none" xmlns="http://www.w3.org/2000/svg"><path d="M11.328 14.824H4.66L3.164 19H1L7.077 3h1.836L15 19h-2.153l-1.52-4.176Zm-6.033-1.736h5.41l-2.71-7.484-2.7 7.484Z" fill="#34313c"/><path fill-rule="evenodd" clip-rule="evenodd" d="M6.973 2.85h2.043l6.202 16.3h-2.476l-1.52-4.176H4.768L3.269 19.15H.783l6.19-16.3Zm.207.3-5.963 15.7h1.841l1.498-4.176h6.877l1.519 4.176h1.83L8.81 3.15H7.18Zm.814 2.013 2.925 8.075H5.082l2.912-8.075Zm0 .883L5.51 12.938h4.982L7.995 6.046Z" fill="#34313c"/><path d="M21.262 18.822c-.096-.19-.173-.53-.233-1.016-.77.796-1.69 1.194-2.76 1.194-.955 0-1.74-.267-2.355-.802-.61-.54-.914-1.224-.914-2.05 0-1.004.382-1.783 1.147-2.335.77-.559 1.851-.838 3.243-.838h1.612v-.758c0-.576-.173-1.033-.52-1.372-.346-.345-.856-.517-1.531-.517-.591 0-1.087.149-1.487.446-.4.297-.6.656-.6 1.078h-1.667c0-.481.17-.945.51-1.39.347-.452.813-.808 1.398-1.07A4.753 4.753 0 0 1 19.05 9c1.117 0 1.992.28 2.625.838.633.552.962 1.316.986 2.29v4.439c0 .885.113 1.59.34 2.112v.143h-1.738Zm-2.75-1.257c.52 0 1.012-.134 1.478-.401.466-.267.803-.615 1.012-1.043v-1.978h-1.299c-2.03 0-3.046.59-3.046 1.773 0 .517.174.921.52 1.212.346.291.791.437 1.335.437Z" fill="#34313c"/><path fill-rule="evenodd" clip-rule="evenodd" d="M19.05 9.15c-.686 0-1.313.127-1.884.38-.565.252-1.01.594-1.34 1.023-.286.376-.442.758-.473 1.149h1.368c.044-.413.268-.763.653-1.049.43-.32.96-.475 1.577-.475.699 0 1.253.179 1.637.56.38.372.564.871.564 1.48v.907H19.39c-1.374 0-2.42.276-3.155.81-.723.522-1.085 1.253-1.085 2.213 0 .783.287 1.425.863 1.937.583.507 1.331.765 2.257.765 1.027 0 1.908-.38 2.651-1.149l.219-.225.038.312c.05.414.113.705.182.884h1.474c-.219-.541-.324-1.245-.324-2.105V12.13c-.024-.939-.339-1.66-.934-2.18-.598-.527-1.434-.8-2.527-.8Zm-2.005.105a4.903 4.903 0 0 1 2.004-.405c1.142 0 2.056.286 2.724.875.67.585 1.012 1.39 1.037 2.4v4.442c0 .875.112 1.556.328 2.052l.012.029v.324h-1.98l-.042-.083c-.085-.17-.153-.43-.207-.77a3.818 3.818 0 0 1-2.651 1.031c-.985 0-1.808-.276-2.455-.839v-.001c-.643-.57-.965-1.294-.965-2.162 0-1.049.402-1.874 1.209-2.457.805-.584 1.921-.866 3.33-.866h1.463v-.607c0-.545-.162-.96-.474-1.266h-.001c-.31-.308-.776-.474-1.426-.474-.566 0-1.028.142-1.398.416-.37.275-.54.593-.54.958v.15h-1.966v-.15c0-.52.185-1.014.541-1.481.364-.474.851-.846 1.457-1.116Zm.298 5.201c.542-.315 1.335-.463 2.36-.463h1.45v2.163l-.016.031c-.224.458-.584.827-1.072 1.107a3.075 3.075 0 0 1-1.553.421c-.572 0-1.053-.154-1.432-.472-.385-.324-.573-.773-.573-1.327 0-.644.282-1.137.836-1.46Zm.151.26c-.46.268-.687.662-.687 1.2 0 .48.159.84.466 1.098.315.264.723.401 1.239.401.492 0 .96-.126 1.403-.381.432-.248.742-.564.937-.948v-1.793h-1.149c-1.005 0-1.735.147-2.209.423Z" fill="#34313c"/></svg>
